src/lib/packages/icons/src/assets/filled/volume-slash.svg

<svg width="24" height="24" viewBox="0 0 24 24" fill="none" xmlns="http://www.w3.org/2000/svg">
<path d="M17 11.7271V19.3311C17 20.7511 15.34 21.5211 14.25 20.6011L10.808 17.6809C10.675 17.5679 10.666 17.365 10.789 17.241L16.4871 11.5161C16.6761 11.3251 17 11.4591 17 11.7271ZM21.5301 2.46999C21.2371 2.17699 20.762 2.17699 20.469 2.46999L16.999 5.93996V4.66995C16.999 3.24995 15.339 2.47993 14.249 3.39993L10.559 6.53005C10.199 6.83005 9.73907 7.00002 9.26907 7.00002H7.49905C6.66905 7.00002 5.99905 7.67002 5.99905 8.50002V15.5C5.99905 15.9 6.16704 16.2501 6.42104 16.5171L2.46804 20.47C2.17504 20.763 2.17504 21.238 2.46804 21.531C2.61404 21.677 2.80607 21.751 2.99807 21.751C3.19007 21.751 3.38198 21.678 3.52798 21.531L21.528 3.53103C21.823 3.23703 21.8231 2.76299 21.5301 2.46999Z" fill="currentColor"/>
</svg>

<svg xmlns="http://www.w3.org/2000/svg" width="24" height="24" fill="none"><path fill="currentColor" d="M17 11.727v7.604c0 1.42-1.66 2.19-2.75 1.27l-3.442-2.92a.3.3 0 0 1-.019-.44l5.698-5.725a.3.3 0 0 1 .513.211Zm4.53-9.257a.75.75 0 0 0-1.061 0l-3.47 3.47V4.67c0-1.42-1.66-2.19-2.75-1.27l-3.69 3.13c-.36.3-.82.47-1.29.47H7.5C6.67 7 6 7.67 6 8.5v7c0 .4.168.75.422 1.017L2.468 20.47a.75.75 0 0 0 1.06 1.061l18-18a.748.748 0 0 0 .002-1.061Z"/></svg>
